dist/svg/puzzle-o.svg

<!-- Generated by Trend Micro Style Portal -->
<svg version="1.1" xmlns="http://www.w3.org/2000/svg" width="16" height="16" viewBox="0 0 16 16">
  <title>puzzle-o</title>
  <path fill="rgb(34,34,34)" d="M9.5 1c0.035 0 0.069 0.003 0.102 0.010l0.040 0.008 0.040 0.005c0.752 0.092 1.319 0.727 1.319 1.477v1.5h4v3h-0.5c-1.379 0-2.5 1.121-2.5 2.5s1.121 2.5 2.5 2.5h0.5v3h-2.975l0.012-0.499c0-1.379-1.121-2.5-2.5-2.5s-2.5 1.121-2.5 2.475l-0.013 0.524h-3.024v-4h-1.5c-0.75 0-1.385-0.567-1.477-1.319l-0.005-0.040-0.008-0.040c-0.007-0.033-0.010-0.067-0.010-0.102s0.003-0.069 0.010-0.102l0.008-0.040 0.005-0.040c0.092-0.752 0.727-1.319 1.477-1.319h1.5v-4h4v-1.5c0-0.75 0.567-1.385 1.319-1.477l0.040-0.005 0.040-0.008c0.033-0.007 0.067-0.010 0.102-0.010zM9.5-0c-0.104 0-0.205 0.010-0.302 0.030-1.236 0.151-2.198 1.192-2.198 2.47v0.5h-3c-0.552 0-1 0.448-1 1v3h-0.5c-1.277 0-2.319 0.961-2.47 2.198-0.020 0.098-0.030 0.199-0.030 0.302s0.010 0.205 0.030 0.302c0.151 1.236 1.192 2.198 2.47 2.198h0.5v3c0 0.552 0.448 1 1 1h4l0.037-1.499c0-0.828 0.672-1.5 1.5-1.5s1.5 0.672 1.5 1.5l-0.037 1.499h4c0.552 0 1-0.448 1-1v-4h-1.5c-0.828 0-1.5-0.672-1.5-1.5s0.672-1.5 1.5-1.5h1.5v-4c0-0.552-0.448-1-1-1h-3v-0.5c0-1.277-0.961-2.319-2.198-2.47-0.098-0.020-0.199-0.030-0.302-0.030v0z"></path>
</svg>

<svg width="16" height="16" viewBox="0 0 16 16" fill="rgb(34, 34, 34)" xmlns="http://www.w3.org/2000/svg"><title>puzzle-o</title><path d="M9.5 1C9.535 1 9.569 1.003 9.602 1.01L9.642 1.018L9.682 1.023C10.434 1.115 11.001 1.75 11.001 2.5V4H15.001V7H14.501C13.122 7 12.001 8.121 12.001 9.5C12.001 10.879 13.122 12 14.501 12H15.001V15H12.026L12.038 14.501C12.038 13.122 10.917 12.001 9.538 12.001C8.159 12.001 7.038 13.122 7.038 14.476L7.025 15H4.001V11H2.501C1.751 11 1.116 10.433 1.024 9.681L1.019 9.641L1.011 9.601C1.004 9.568 1.001 9.534 1.001 9.499C1.001 9.464 1.004 9.43 1.011 9.397L1.019 9.357L1.024 9.317C1.116 8.565 1.751 7.998 2.501 7.998H4.001V3.998H8.001V2.498C8.001 1.748 8.568 1.113 9.32 1.021L9.36 1.016L9.4 1.008C9.433 1.001 9.467 0.998 9.502 0.998L9.5 1ZM9.5 0C9.396 0 9.295 0.01 9.198 0.03C7.962 0.181 7 1.222 7 2.5V3H4C3.448 3 3 3.448 3 4V7H2.5C1.223 7 0.181 7.961 0.03 9.198C0.01 9.296 0 9.397 0 9.5C0 9.603 0.01 9.705 0.03 9.802C0.181 11.038 1.222 12 2.5 12H3V15C3 15.552 3.448 16 4 16H8L8.037 14.501C8.037 13.673 8.709 13.001 9.537 13.001C10.365 13.001 11.037 13.673 11.037 14.501L11 16H15C15.552 16 16 15.552 16 15V11H14.5C13.672 11 13 10.328 13 9.5C13 8.672 13.672 8 14.5 8H16V4C16 3.448 15.552 3 15 3H12V2.5C12 1.223 11.039 0.181 9.802 0.03C9.704 0.01 9.603 0 9.5 0Z" fill="rgb(34, 34, 34)" fill-opacity="1.00"/></svg>
